!!!!SEGMENT: pl-lzu--m-15111--001-026_noskowski-zygmunt--spiewnik-dla-dzieci-op-34-26-cichy-wieczor.krn
!!!cenid: 18xx:4723
!!!COM: Noskowski, Zygmunt
!!!COM-rismID: pe106604
!!!CDT: 1846/05/02-1909/07/23
!!!CNT: Polish
!!!GTL: Śpiewnik dla dzieci, op. 34
!!!OTL: 26. Cichy wieczór
!!!OMV: 026
!!!PDT: 1890
!!!AGN: Secular; Song; Children
!!!YEC: Copyright 2022 Narodowy Instytut Fryderyka Chopina (https://polishscores.org)
!!!YEM: License CC-BY-4.0 (https://creativecommons.org/licenses/by/4.0)
!!!SMS-siglum: PL-LŹu
!!!SMS-shelfmark: M 15111
!!!SMS-variant:
!!!SMS-altvar:
!!!SMS-shelfwork: 001-026 G
!!!NIFC-rismSourceID: 1001234040
!!!NIFC-rismChildID: 1001234040
!!!NIFC-islandoraID: pl-lzu:5455
!!!URL-pdf-islandora: https://repozytorium.nifc.pl/islandora/object/pl-lzu%3A5455/datastream/PDF/view
!!!URL-scan: https://polish.musicsources.pl/pl/lokalizacje/galeria/druki-muzyczne/23228/34 @EN{Scan on Polish Music Sources Website} @PL{Skany w portalu Dziedzictwo Muzyki Polskiej w otwartym dostępie}
!!!IIIF:
!!!ONB-nifc:
!!!AIN: 1 piano 1 vox
!!!key: D-
!!!OMD: Andante spianato, con delicatezza.
**kern	**kern	**dynam	**kern	**text	**text	**dynam
*part2	*part2	*part2	*part1	*part1	*part1	*part1
*staff3	*staff2	*staff2,3	*staff1	*staff1	*staff1	*staff1
*I"[Piano]	*I"[Piano]	*	*I"[Voice]	*	*	*
*I'pf	*I'pf	*	*I'V	*	*	*
*Ipiano	*Ipiano	*	*Ivox	*	*	*
*ICklav	*ICklav	*	*ICvox	*	*	*
*IGacomp	*IGacomp	*	*IGsolo	*	*	*
*>[A,B,B,C]	*>[A,B,B,C]	*>[A,B,B,C]	*>[A,B,B,C]	*>[A,B,B,C]	*>[A,B,B,C]	*>[A,B,B,C]
*>A	*>A	*>A	*>A	*>A	*>A	*>A
*cleIfF4	*clefG2	*	*clefG2	*	*	*
*k[b-e-a-d-g-]	*k[b-e-a-d-g-]	*	*k[b-e-a-d-g-]	*	*	*
*D-:	*D-:	*	*D-:	*	*	*
*M3/8	*M3/8	*	*M3/8	*	*	*
=1	=1	=1	=1	=1	=1	=1
*ped	*	*	*	*	*	*
!	!LO:TX:a:i:t=Zwolna i marząco.	!LO:DY:rj	!	!	!	!
8r	16a-\LL 16aa-	pp <	4.r	.	.	.
.	16a-\ 16aa-	.	.	.	.	.
8r	16a-\ 16aa-	.	.	.	.	.
.	16a-\ 16aa-	.	.	.	.	.
8d-\ 8f	16a-\ 16ff 16aa-	.	.	.	.	.
.	16a-\JJ 16aa-	[	.	.	.	.
=2!|:	=2!|:	=2!|:	=2!|:	=2!|:	=2!|:	=2!|:
*>B	*>B	*>B	*>B	*>B	*>B	*>B
8d-\ 8f	16a-\LL 16ff 16aa-	.	4.r	.	.	.
.	16a-\ 16aa-	.	.	.	.	.
8r	16a-\ 16aa-	.	.	.	.	.
.	16a-\ 16aa-	.	.	.	.	.
8D-\ 8A-	16a-\ 16ff 16aa-	.	.	.	.	.
.	16a-\JJ 16ff 16aa-	.	.	.	.	.
=3	=3	=3	=3	=3	=3	=3
*	*	*	*	*v:1	*v:2	*
4.DD-/ 4.AA-	16a-\LL 16ff 16aa-	.	16a-/	Ci-	Si-	p
.	16a-\ 16ff 16aa-	.	16a-/	-chy	-wy	.
.	16dd-\ 16ff 16aa-	>	16dd-\	wie-	ko-	.
.	16dd-\ 16ff 16aa-	.	16dd-\	-czór	-nik	.
.	16b-\ 16ff 16aa-	.	16b-\	już	rży	.
*Xped	*	*	*	*	*	*
.	16dd-\JJ 16ff 16aa-	]	16dd-\	za-	po	.
=4	=4	=4	=4	=4	=4	=4
*ped	*	*	*	*	*	*
4.A-\ 4.e-	16cc\LL 16gg- 16aa-	.	8cc\	-pa-	łą-	.
.	16cc\ 16gg- 16aa-	.	.	.	.	.
.	16a-\ 16gg- 16aa-	.	4a-/	-da,	-ce,	.
.	16a-\ 16gg- 16aa-	.	.	.	.	.
.	16a-\ 16gg- 16aa-	.	.	.	.	.
*Xped	*	*	*	*	*	*
.	16a-\JJ 16gg- 16aa-	.	.	.	.	.
!!LO:PB:g=original
=5	=5	=5	=5	=5	=5	=5
*ped	*	*	*	*v:1	*v:2	*
4.DD-/ 4.GG-	16b-\LL 16gg- 16bb-	.	16b-\	Zga-	Roz-	.
.	16cc\ 16gg- 16bb-	.	16cc\	-śnie	-legł	.
.	16ee-\ 16gg- 16bb-	.	8ee-\	zo-	tam	.
.	16ee-\ 16gg- 16bb-	.	.	.	.	.
*Xped	*	*	*	*	*	*
.	16dd-\ 16gg- 16bb-	.	(16dd-\LL	-rza	się	.
.	16b-\JJ 16gg- 16bb-	.	16b-\JJ)	.	.	.
=6	=6	=6	=6	=6	=6	=6
*ped	*	*	*	*	*	*
4.D-\ 4.A-	16dd-\LL 16ff 16aa-	.	4.dd-\	wnet,	głos,	.
.	16dd-\ 16ff 16aa-	.	.	.	.	.
.	16dd-\ 16ff 16aa-	.	.	.	.	.
.	16dd-\ 16ff 16aa-	.	.	.	.	.
.	16dd-\ 16ff 16aa-	.	.	.	.	.
*Xped	*	*	*	*	*	*
.	16dd-\JJ 16ff 16aa-	.	.	.	.	.
=7	=7	=7	=7	=7	=7	=7
*ped	*	*	*	*	*	*
4.FF/ 4.C	16cc\LL 16ff 16aa-	.	16cc\	A	Le-	.
.	16dd-\ 16ff 16aa-	.	16dd-\	pod	-ci	.
.	16cc\ 16ff 16aa-	.	16cc\	la-	e-	.
.	16a-\ 16ff 16aa-	.	16a-/	-sem	-cho	.
*Xped	*	*	*	*	*	*
.	16b-\ 16een 16ggn	.	16b-/	pod	od	.
.	16gn\JJ 16ee 16gg	.	16gn/	ol-	ol-	.
!!LO:LB:g=original
=8	=8	=8	=8	=8	=8	=8
*ped	*	*	*	*v:1	*v:2	*
4F\ 4c	16cc\LL 16ff 16aa-	.	8cc\	-szo-	-szy-	.
.	16cc\JJ 16ff 16aa-	.	.	.	.	.
.	16f/LL 16a- 16cc	.	4f/	-wym	-ny	.
.	16f/ 16a- 16cc	.	.	.	.	.
*Xped	*	*	*	*	*	*
8FF/	16f/ 16a- 16ddn	.	.	.	.	.
.	16f/JJ 16a- 16dd	.	.	.	.	.
*ped	*	*	*	*	*	*
=9	=9	=9	=9	=9	=9	=9
8EE-/	16a-\LL 16cc 16ee-X	.	16a-/	Sły-	Po-	.
.	16a-\ 16cc 16ee-	.	16a-/	-chać	-lem	.
4E-\	16b-\ 16dd- 16ee-	.	8b-/	rże-	peł-	.
.	16b-\ 16dd- 16ee-	.	.	.	.	.
*Xped	*	*	*	*	*	*
.	16f\ 16dd- 16ee-	.	(16f/LL	-nie	-nem	.
.	16e-\JJ 16dd- 16ee-	.	16e-/JJ)	.	.	.
=10	=10	=10	=10	=10	=10	=10
*ped	*	*	*	*	*	*
4AA-/ 4E-	16cc\LL 16ee-	.	4cc\	het!	ros.	.
.	16cc\ 16ee-	.	.	.	.	.
.	16cc\ 16ee- 16aa-	.	.	.	.	.
.	16cc\ 16ee- 16ggn	.	.	.	.	.
8r	16cc\ 16ee- 16bb-	.	8r	.	.	.
.	16cc\JJ 16ee- 16aa-	.	.	.	.	.
*ped	*	*	*	*	*	*
=11	=11	=11	=11	=11	=11	=11
4.AAA-/ 4.AA-	16b-\LL 16dd- 16gg-X	.	16b-/	Si-	A	.
.	16b-\ 16dd- 16gg-	.	16b-/	-wy	mie-	.
.	16b-\ 16dd- 16gg-	.	8.b-/	ko-	-sią-	.
.	16b-\ 16dd- 16gg-	.	.	.	.	.
.	16b-\ 16dd- 16gg-	.	.	.	.	.
*Xped	*	*	*	*	*	*
.	16b-\JJ 16dd- 16gg-	.	16b-/	-nik	-czek	.
!!LO:LB:g=original
=12	=12	=12	=12	=12	=12	=12
*ped	*	*	*	*v:1	*v:2	*
4.AA-\ 4.A-	16dd-\LL 16ee- 16gg-	.	16dd-\	tam	ci-	.
.	16cc\ 16ee- 16gg-	.	16cc\	się	-cho	.
.	16b-\ 16dd- 16gg-	.	8b-/	pa-	wsta-	.
.	16b-\ 16dd- 16gg-	.	.	.	.	.
*Xped	*	*	*	*	*	*
.	16a-\ 16cc 16gg-	.	8a-/	-sie,	-je,	.
.	16a-\JJ 16cc 16gg-	.	.	.	.	.
*ped	*	*	*	*	*	*
=13	=13	=13	=13	=13	=13	=13
4.DD-/ 4.D-	16a-\LL 16dd- 16ff	.	16a-/	Si-	Li-	.
.	16a-\ 16dd- 16ff	.	16a-/	-wy	-pa	.
.	16b-\ 16dd- 16ff	.	8b-/	ko-	sy-	.
.	16b-\ 16dd- 16ff	.	.	.	.	.
*Xped	*	*	*	*	*	*
.	16f\ 16dd- 16ff	.	(16f/LL	-nik	-pie	.
.	16g-\JJ 16dd- 16ff	.	16g-/JJ)	.	.	.
*ped	*	*	*	*	*	*
=14	=14	=14	=14	=14	=14	=14
4.AAA-/ 4.AA-	16a-\LL 16cc 16ee-	.	(8a-/	mój.	kwiat.	.
.	16a-\ 16cc 16ee-	.	.	.	.	.
.	16e-\ 16cc 16ee-	.	4e-/)	.	.	.
.	16e-\ 16cc 16ee-	.	.	.	.	.
*Xped	*	*	*	*	*	*
.	16g-\ 16cc 16ee-	.	.	.	.	.
.	16g-\JJ 16cc 16ee-	.	.	.	.	.
!!LO:PB:g=original
=15	=15	=15	=15	=15	=15	=15
*ped	*	*	*	*v:1	*v:2	*
(4DD-/	16f\LL 16cc-X 16ee-	.	16f/	Jest	Cu-	.
.	16f\ 16cc- 16dd-	<	16f/	tam	-dnaż,	<
.	16b-\ 16dd- 16gg-	.	16b-/	łącz-	cu-	.
.	16b-\ 16dd- 16gg-	.	16b-/	-ka	-dna	.
16GG-/LL	16a-\ 16dd- 16gg-	[	16a-/	z dro-	noc	[
*Xped	*	*	*	*	*	*
16BB-/JJ)	16g-\JJ 16dd- 16gg-	.	16g-/	-bną	ta	.
=16	=16	=16	=16	=16	=16	=16
*ped	*	*	*	*	*	*
4.E-\	16ccn\LL 16dd- 16gg-	.	8cc\	traw-	le-	mf
.	16cc\ 16dd- 16gg-	.	.	.	.	.
.	16b-\ 16dd- 16gg-	.	4b-\	-ką,	-tnia,	.
.	16b-\ 16dd- 16gg-	.	.	.	.	.
.	16dd-\ 16gg- 16bb-	.	.	.	.	.
*Xped	*	*	*	*	*	*
.	16dd-\JJ 16gg- 16bb-	.	.	.	.	.
=17	=17	=17	=17	=17	=17	=17
*ped	*	*	*	*	*	*
4AA-/ 4A-	16dd-\LL 16ff 16aa-	.	16dd-\	Jest	Cu-	.
.	16dd-\ 16ff 16aa-	.	16dd-\	kry-	-dny	.
*Xped	*	*	*	*	*	*
.	16ee-\ 16gg- 16aa-	>	8ee-\	-ni-	jest	>
.	16ee-\ 16gg- 16aa-	.	.	.	.	.
8AA-/	16b-\ 16gg- 16aa-	]	(16b-/LL	-czny	nasz	]
.	16a-\JJ 16gg- 16aa-	.	16a-/JJ)	.	.	.
!!LO:LB:g=original
=18	=18	=18	=18	=18	=18	=18
*ped	*	*	*	*v:1	*v:2	*
!	!	!LO:DY:rj	!	!	!	!LO:DY:rj
[4.DD-/ [4.AA-	16dd-\LL 16ff 16aa-	p	[4.ff\	zdrój!	świat!	p
.	16dd-\ 16ff 16aa-	.	.	.	.	.
.	16ff\ 16aa- 16ddd-	.	.	.	.	.
.	16ff\ 16aa- 16ccc	.	.	.	.	.
.	16ff\ 16aa- 16eee-	.	.	.	.	.
.	16ff\JJ 16aa- 16ddd-	.	.	.	.	.
=19	=19	=19	=19	=19	=19	=19
4.DD-/_ 4.AA-_	16a-\LL 16dd- 16ff	.	4.ff\_	.	.	.
.	16dd-\ 16ff 16bb-	.	.	.	.	.
.	16dd-\ 16ff 16aa-	.	.	.	.	.
.	16f\ 16a- 16dd-	.	.	.	.	.
.	16a-\ 16dd- 16ff	.	.	.	.	.
.	16f\JJ 16a- 16dd-	.	.	.	.	.
=20	=20	=20	=20	=20	=20	=20
8DD-/] 8AA-]	16a-\LL 16aa-	.	4ff\]	.	.	.
.	16a-\ 16aa-	.	.	.	.	.
8r	16a-\ 16aa-	.	.	.	.	.
.	16a-\ 16aa-	.	.	.	.	.
8D-\ 8A-	16a-\ 16ff 16aa-	.	8r	.	.	.
.	16a-\JJ 16aa-	.	.	.	.	.
=21:|!	=21:|!	=21:|!	=21:|!	=21:|!	=21:|!	=21:|!
*>C	*>C	*>C	*>C	*>C	*>C	*>C
4.DD-;/ 4.AA-	4.f:;\ 4.a-: 4.dd-: 4.ff:	.	4.r;	.	.	.
==	==	==	==	==	==	==
*-	*-	*-	*-	*-	*-	*-
!!!system-decoration: p1{p2}
!!!RDF**kern: > = above
!!!RDF**kern: < = below
!!!ENC: Andrzej Gręziak
!!!END: 2025-03-05
!!!ENC: Marta Lawrence
!!!END: 2025-03-22
